X: 101521
T: Jim McGuirk's
S: B.Breathnach: "Ceol Rince na hEireann" II/173 (gan ainm) 
Z: B.Black
L: 1/8
M: 4/4
R: reel
K: G
D|G2 Bd g2 fg|e2 dc BGG>B|c2 Ac B2 GB|A2 FD GFD>D|
G2 Bd g2 fg|e2 dc BGG>B|c2 Ac B2 GB|A2 FD G3 :|
D|G2 Bd g2 fg|a2 aa fgd>g|f2 fa g2 ga|c2 cA BG G2|
G2 Bd g2 fg|a2 aa fgd>g|f2 fa gfdc|A2 FD G3 :|
